X: 11864
T: Emile's Dream
R: jig
M: 6/8
K: Amajor
EAc efe|dcd fec|EAc efe|d3 dcd|
fef Bcd|efe cBA|EGB dcB|1 c3 cBc:|2 c3 z3||
Ace aga|g2B g2g|BAB gfg|f2{gf}e e2c|
Ace fef|d3 dfa|gfe dcB|1 c3 c3:|2 A3 A3||

